icon-themes/breeze_svg/cmd/sc_openreadonly.svg

<svg viewBox="0 0 16 16" xmlns="http://www.w3.org/2000/svg"><path d="m2 2v1 3 1 6 1h5v-1h-4v-6h4 6v1h1v-1-1-1-1h-5l-2-2h-4zm1 1h3.59375l1 1h-.59375l-2 2h-2zm9 5-1 1-1 1-2 2v1 1h2l.59375-.59375.40625-.40625 1-1 1-1 1-1zm-.3125 1.6875.59375.59375-.28125.28125-1.40625 1.40625v.03125l-1.28125 1.28125-.59375-.59375 1.875-1.90625z" fill="#b3b3b3"/></svg>

<svg xmlns="http://www.w3.org/2000/svg" viewBox="0 0 16 16">
 <path 
     style="fill:#b3b3b3" 
     d="M 2 2 L 2 3 L 2 6 L 2 7 L 2 13 L 2 14 L 7 14 L 7 13 L 3 13 L 3 7 L 7 7 L 13 7 L 13 8 L 14 8 L 14 7 L 14 6 L 14 5 L 14 4 L 9 4 L 7 2 L 3 2 L 2 2 z M 3 3 L 6.59375 3 L 7.59375 4 L 7 4 L 5 6 L 3 6 L 3 3 z M 12 8 L 11 9 L 10 10 L 8 12 L 8 13 L 8 14 L 10 14 L 10.59375 13.40625 L 11 13 L 12 12 L 13 11 L 14 10 L 12 8 z M 11.6875 9.6875 L 12.28125 10.28125 L 12 10.5625 L 10.59375 11.96875 L 10.59375 12 L 9.3125 13.28125 L 8.71875 12.6875 L 10.59375 10.78125 L 11.6875 9.6875 z "
     />
 </svg>
